X:18458
T:Waltz. CJF.030
M:3/8
L:1/16
Q:60
S: C.J.Fox MS, 1829/33, Beverley,E.Yorks.
R:Waltz
O:England
A:East Yorkshire
B:Kidson Coll.Mitchell Lib.M1805
N:In the MS, each section ends d4. - PJH
Z:P J Headford 2000
K:D
d2d'2c'2|d2b2a2|A2c2e2|dcded2|d2d'2c'2|d2b2a2|\
A2c2e2|d6:|:!a2b2b2|a2b2b2|abagfe|dcdefg|
a2b2b2|a2b2b2|abagfe|d6:|:!Acecec|Bdfdfd|\
ABcdef|gfedcB|Acecec|
Bdfdfd|Agfedc|d6:|]


